X:437
T:Over the Sea to Skye
T:The Skye Boat Song 
S:Childhood memories
Z:Nigel Gatherer
+:and friends
Q:1/4=140 
M:3/4
L:1/4
K:G
"Dmaj" D>E"Emin"D | "G7" G2 G | "Emin" A>BA | "D" d3 | "Dmaj" B>AB | "Emin" E2 E | "Dmaj" D2- | "A7" D3 :|:     
%%MIDI gchord fcf
"Bmaj" B>GB | "Bmaj" B3 | "Dmaj" A>EA | "Amin" A3 | "Gmaj" G>EG | "Gmaj" G2 G | "Emin" E3- | "Emin" E3 | 
%%MIDI gchord hhighhji
"Bmaj" B>GB | "Bmaj" B3 | "Dmaj" A>EA | "Amin" A3 | "Gmaj" G>EG | "Gmaj" G2 G | "Emin" E3 | "Emin" D3 | 
|: D>ED | G2 G | A>BA | d3 | B>AB | E2 :|1 E | D2 |  {ab}D3 :|2 E | F2 | G3 :|  
w:oh the-re we go o-ver the sea~to| sk-ye__ we go

